X: 10110
T: TEGAN'S POLKA
C: Bob McQuillen 25 Oct 93
B: Bob's Note Book 10 #110
%R: polka
Z: 2020 John Chambers <jc:trillian.mit.edu>
M: C
L: 1/8
K: D
Bc \
| d2D2 D2FG | A2d2 d2dB | A2F2 EDEF | D2B,2 B,2 AB |\
| d2D2 DEFG | A2dc d2ef | gagf gfed | c2A2 A2 :|
|: FA \
| B2B2 A2FA | B2dB A2dB | A2F2 EDEF | D2B,2 B,2 AB |\
| d2D2 FEFG | A2d2 fedB | A2d2 e3d | d6 :|
%%begintext align
%% Down Philly way there's a nice family named Mr & Mrs Bruce Nagy. Now it turns out that Mrs.
%% Nagy is Chris Brennan Nagy and that, you see, makes her A) John Brennan's
%% cousin and B) a fiddle player. Well, the Nagy's have a real cute daughter
%% named Tegan Nagy, (who is John Brennan's 2nd cousin) and _she's_ the
%% one this tune is for. Now isn't that nice? Say "Yes": "YES!" Thank you.
%%endtext

%%sep 1 1 500

%%sep 1 1 500

